X:144092
T:Rowan Tree (Simplified)
H: 
B: Scots Guards II
C:
O:Kevin Fraser
Z:Kevin Fraser
Q:1/4=90
K:HP
M:4/4
L:1/8
R:March
U: R = ///
U: r = //
U: V = !accent!
V:M gstem=up stem=down name="Melody"
V:H gstem=up stem=down name="Harmony"
V:C gstem=up stem=down name="C-Harmony"
V:S gstem=up stem=down dyn=up stafflines=1 clef=perc middle=G name="Snare" sname="Snare"" sname="Snare"
V:B gstem=up stem=down clef=none dyn=up name="Bass"
V:T gstem=up stem=down clef=none dyn=up name="Tenor"
I:MIDI=program 110
V:M gstem=up stem=down name="Melody"
%%MIDI program 109 #bagpipes
%%MIDI vol 100
T: Rowan Tree
[V:M]  {g}AB||         {g}c3{g}c {g}c2{e}B2 | {g}ce3 {A}e2 {ag}a2  | {fg}f3e {g}f2a2   | {fg}f3e {A}e2 {g}AB | $
w: {g}A B|         {g}c3 {g}c {g}c2 {e}B2 | {g}c e3 {A}e2 {ag}a2  | {fg}f3 e {g}f2 a2   | {fg}f3 e {A}e2 {g}A B | $
[V:M]        |         {g}c3{g}c {g}c2{e}B2 | {g}ce3 {g}f3e      | {g}ec3 {g}B3c   | {g}A4 {GAG}A2       || $
w:      |         {g}c3 {g}c {g}c2 {e}B2 | {g}c e3 {g}f3 e      | {g}e c3 {g}B3 c   | {g}A4 {GAG}A2       || $
[V:M]  {g}e2||         {A}e2 a2 {g}a3g          | {f}g2 f2 {g}f2 a2  | {ef}e3f {g}fe {g}dc |{g}c2-cd/2c/2 {g}B2{g}AB | $
w:  {g}e2|         {A}e2 a2 {g}a3 g          | {f}g2 f2 {g}f2 a2  | {ef}e3 f {g}f e {g}d c |{g}c2- c d/2 c/2 {g}B2 {g}A B | $
[V:M]        |         {g}c3{g}c {g}c2{e}B2 | {g}ce3 {g}f3e      | {g}ec3 {g}B3c   | {g}A4 {GAG}A2       || $
w:     |         {g}c3 {g}c {g}c2 {e}B2 | {g}c e3 {g}f3 e      | {g}e c3 {g}B3 c   | {g}A4 {GAG}A2       || $

